<?xml version='1.0' encoding='UTF-8'?>
<map version="1.10" tiledversion="1.10.2" orientation="orthogonal" renderorder="right-down" width="15" height="10" tilewidth="16" tileheight="16" infinite="0" nextlayerid="2" nextobjectid="1">
 <tileset firstgid="1" name="Ch1Map_metatiles" tilewidth="16" tileheight="16" tilecount="87" columns="32">
  <image source="Ch1Map.metatiles.png" width="512" height="48" />
  <tile id="0">
   <properties>
    <property name="metatile" type="int" value="6" />
    <property name="terrain" value="TERRAIN_PLAINS" />
    <property name="terrain_id" type="int" value="1" />
   </properties>
  </tile>
  <tile id="1">
   <properties>
    <property name="metatile" type="int" value="21" />
    <property name="terrain" value="TERRAIN_CLIFF" />
    <property name="terrain_id" type="int" value="38" />
   </properties>
  </tile>
  <tile id="2">
   <properties>
    <property name="metatile" type="int" value="22" />
    <property name="terrain" value="TERRAIN_CLIFF" />
    <property name="terrain_id" type="int" value="38" />
   </properties>
  </tile>
  <tile id="3">
   <properties>
    <property name="metatile" type="int" value="23" />
    <property name="terrain" value="TERRAIN_CLIFF" />
    <property name="terrain_id" type="int" value="38" />
   </properties>
  </tile>
  <tile id="4">
   <properties>
    <property name="metatile" type="int" value="25" />
    <property name="terrain" value="TERRAIN_CLIFF" />
    <property name="terrain_id" type="int" value="38" />
   </properties>
  </tile>
  <tile id="5">
   <properties>
    <property name="metatile" type="int" value="26" />
    <property name="terrain" value="TERRAIN_CLIFF" />
    <property name="terrain_id" type="int" value="38" />
   </properties>
  </tile>
  <tile id="6">
   <properties>
    <property name="metatile" type="int" value="38" />
    <property name="terrain" value="TERRAIN_PLAINS" />
    <property name="terrain_id" type="int" value="1" />
   </properties>
  </tile>
  <tile id="7">
   <properties>
    <property name="metatile" type="int" value="44" />
    <property name="terrain" value="TERRAIN_PLAINS" />
    <property name="terrain_id" type="int" value="1" />
   </properties>
  </tile>
  <tile id="8">
   <properties>
    <property name="metatile" type="int" value="54" />
    <property name="terrain" value="TERRAIN_CLIFF" />
    <property name="terrain_id" type="int" value="38" />
   </properties>
  </tile>
  <tile id="9">
   <properties>
    <property name="metatile" type="int" value="56" />
    <property name="terrain" value="TERRAIN_CLIFF" />
    <property name="terrain_id" type="int" value="38" />
   </properties>
  </tile>
  <tile id="10">
   <properties>
    <property name="metatile" type="int" value="57" />
    <property name="terrain" value="TERRAIN_CLIFF" />
    <property name="terrain_id" type="int" value="38" />
   </properties>
  </tile>
  <tile id="11">
   <properties>
    <property name="metatile" type="int" value="70" />
    <property name="terrain" value="TERRAIN_PLAINS" />
    <property name="terrain_id" type="int" value="1" />
   </properties>
  </tile>
  <tile id="12">
   <properties>
    <property name="metatile" type="int" value="71" />
    <property name="terrain" value="TERRAIN_PLAINS" />
    <property name="terrain_id" type="int" value="1" />
   </properties>
  </tile>
  <tile id="13">
   <properties>
    <property name="metatile" type="int" value="72" />
    <property name="terrain" value="TERRAIN_PLAINS" />
    <property name="terrain_id" type="int" value="1" />
   </properties>
  </tile>
  <tile id="14">
   <properties>
    <property name="metatile" type="int" value="73" />
    <property name="terrain" value="TERRAIN_PLAINS" />
    <property name="terrain_id" type="int" value="1" />
   </properties>
  </tile>
  <tile id="15">
   <properties>
    <property name="metatile" type="int" value="74" />
    <property name="terrain" value="TERRAIN_PLAINS" />
    <property name="terrain_id" type="int" value="1" />
   </properties>
  </tile>
  <tile id="16">
   <properties>
    <property name="metatile" type="int" value="75" />
    <property name="terrain" value="TERRAIN_PLAINS" />
    <property name="terrain_id" type="int" value="1" />
   </properties>
  </tile>
  <tile id="17">
   <properties>
    <property name="metatile" type="int" value="99" />
    <property name="terrain" value="TERRAIN_PLAINS" />
    <property name="terrain_id" type="int" value="1" />
   </properties>
  </tile>
  <tile id="18">
   <properties>
    <property name="metatile" type="int" value="102" />
    <property name="terrain" value="TERRAIN_PLAINS" />
    <property name="terrain_id" type="int" value="1" />
   </properties>
  </tile>
  <tile id="19">
   <properties>
    <property name="metatile" type="int" value="103" />
    <property name="terrain" value="TERRAIN_PLAINS" />
    <property name="terrain_id" type="int" value="1" />
   </properties>
  </tile>
  <tile id="20">
   <properties>
    <property name="metatile" type="int" value="109" />
    <property name="terrain" value="TERRAIN_PLAINS" />
    <property name="terrain_id" type="int" value="1" />
   </properties>
  </tile>
  <tile id="21">
   <properties>
    <property name="metatile" type="int" value="134" />
    <property name="terrain" value="TERRAIN_PLAINS" />
    <property name="terrain_id" type="int" value="1" />
   </properties>
  </tile>
  <tile id="22">
   <properties>
    <property name="metatile" type="int" value="135" />
    <property name="terrain" value="TERRAIN_PLAINS" />
    <property name="terrain_id" type="int" value="1" />
   </properties>
  </tile>
  <tile id="23">
   <properties>
    <property name="metatile" type="int" value="137" />
    <property name="terrain" value="TERRAIN_PLAINS" />
    <property name="terrain_id" type="int" value="1" />
   </properties>
  </tile>
  <tile id="24">
   <properties>
    <property name="metatile" type="int" value="139" />
    <property name="terrain" value="TERRAIN_PLAINS" />
    <property name="terrain_id" type="int" value="1" />
   </properties>
  </tile>
  <tile id="25">
   <properties>
    <property name="metatile" type="int" value="140" />
    <property name="terrain" value="TERRAIN_PLAINS" />
    <property name="terrain_id" type="int" value="1" />
   </properties>
  </tile>
  <tile id="26">
   <properties>
    <property name="metatile" type="int" value="142" />
    <property name="terrain" value="TERRAIN_PLAINS" />
    <property name="terrain_id" type="int" value="1" />
   </properties>
  </tile>
  <tile id="27">
   <properties>
    <property name="metatile" type="int" value="143" />
    <property name="terrain" value="TERRAIN_PLAINS" />
    <property name="terrain_id" type="int" value="1" />
   </properties>
  </tile>
  <tile id="28">
   <properties>
    <property name="metatile" type="int" value="166" />
    <property name="terrain" value="TERRAIN_PLAINS" />
    <property name="terrain_id" type="int" value="1" />
   </properties>
  </tile>
  <tile id="29">
   <properties>
    <property name="metatile" type="int" value="167" />
    <property name="terrain" value="TERRAIN_PLAINS" />
    <property name="terrain_id" type="int" value="1" />
   </properties>
  </tile>
  <tile id="30">
   <properties>
    <property name="metatile" type="int" value="172" />
    <property name="terrain" value="TERRAIN_PLAINS" />
    <property name="terrain_id" type="int" value="1" />
   </properties>
  </tile>
  <tile id="31">
   <properties>
    <property name="metatile" type="int" value="173" />
    <property name="terrain" value="TERRAIN_PLAINS" />
    <property name="terrain_id" type="int" value="1" />
   </properties>
  </tile>
  <tile id="32">
   <properties>
    <property name="metatile" type="int" value="197" />
    <property name="terrain" value="TERRAIN_PLAINS" />
    <property name="terrain_id" type="int" value="1" />
   </properties>
  </tile>
  <tile id="33">
   <properties>
    <property name="metatile" type="int" value="198" />
    <property name="terrain" value="TERRAIN_PLAINS" />
    <property name="terrain_id" type="int" value="1" />
   </properties>
  </tile>
  <tile id="34">
   <properties>
    <property name="metatile" type="int" value="199" />
    <property name="terrain" value="TERRAIN_PLAINS" />
    <property name="terrain_id" type="int" value="1" />
   </properties>
  </tile>
  <tile id="35">
   <properties>
    <property name="metatile" type="int" value="201" />
    <property name="terrain" value="TERRAIN_PLAINS" />
    <property name="terrain_id" type="int" value="1" />
   </properties>
  </tile>
  <tile id="36">
   <properties>
    <property name="metatile" type="int" value="230" />
    <property name="terrain" value="TERRAIN_PLAINS" />
    <property name="terrain_id" type="int" value="1" />
   </properties>
  </tile>
  <tile id="37">
   <properties>
    <property name="metatile" type="int" value="238" />
    <property name="terrain" value="TERRAIN_PLAINS" />
    <property name="terrain_id" type="int" value="1" />
   </properties>
  </tile>
  <tile id="38">
   <properties>
    <property name="metatile" type="int" value="262" />
    <property name="terrain" value="TERRAIN_PLAINS" />
    <property name="terrain_id" type="int" value="1" />
   </properties>
  </tile>
  <tile id="39">
   <properties>
    <property name="metatile" type="int" value="263" />
    <property name="terrain" value="TERRAIN_PLAINS" />
    <property name="terrain_id" type="int" value="1" />
   </properties>
  </tile>
  <tile id="40">
   <properties>
    <property name="metatile" type="int" value="267" />
    <property name="terrain" value="TERRAIN_PLAINS" />
    <property name="terrain_id" type="int" value="1" />
   </properties>
  </tile>
  <tile id="41">
   <properties>
    <property name="metatile" type="int" value="296" />
    <property name="terrain" value="TERRAIN_PLAINS" />
    <property name="terrain_id" type="int" value="1" />
   </properties>
  </tile>
  <tile id="42">
   <properties>
    <property name="metatile" type="int" value="355" />
    <property name="terrain" value="TERRAIN_PEAK" />
    <property name="terrain_id" type="int" value="18" />
   </properties>
  </tile>
  <tile id="43">
   <properties>
    <property name="metatile" type="int" value="359" />
    <property name="terrain" value="TERRAIN_PLAINS" />
    <property name="terrain_id" type="int" value="1" />
   </properties>
  </tile>
  <tile id="44">
   <properties>
    <property name="metatile" type="int" value="401" />
    <property name="terrain" value="TERRAIN_PLAINS" />
    <property name="terrain_id" type="int" value="1" />
   </properties>
  </tile>
  <tile id="45">
   <properties>
    <property name="metatile" type="int" value="425" />
    <property name="terrain" value="TERRAIN_PEAK" />
    <property name="terrain_id" type="int" value="18" />
   </properties>
  </tile>
  <tile id="46">
   <properties>
    <property name="metatile" type="int" value="433" />
    <property name="terrain" value="TERRAIN_PLAINS" />
    <property name="terrain_id" type="int" value="1" />
   </properties>
  </tile>
  <tile id="47">
   <properties>
    <property name="metatile" type="int" value="451" />
    <property name="terrain" value="TERRAIN_PEAK" />
    <property name="terrain_id" type="int" value="18" />
   </properties>
  </tile>
  <tile id="48">
   <properties>
    <property name="metatile" type="int" value="475" />
    <property name="terrain" value="TERRAIN_LAKE" />
    <property name="terrain_id" type="int" value="22" />
   </properties>
  </tile>
  <tile id="49">
   <properties>
    <property name="metatile" type="int" value="476" />
    <property name="terrain" value="TERRAIN_LAKE" />
    <property name="terrain_id" type="int" value="22" />
   </properties>
  </tile>
  <tile id="50">
   <properties>
    <property name="metatile" type="int" value="477" />
    <property name="terrain" value="TERRAIN_LAKE" />
    <property name="terrain_id" type="int" value="22" />
   </properties>
  </tile>
  <tile id="51">
   <properties>
    <property name="metatile" type="int" value="478" />
    <property name="terrain" value="TERRAIN_LAKE" />
    <property name="terrain_id" type="int" value="22" />
   </properties>
  </tile>
  <tile id="52">
   <properties>
    <property name="metatile" type="int" value="493" />
    <property name="terrain" value="TERRAIN_PEAK" />
    <property name="terrain_id" type="int" value="18" />
   </properties>
  </tile>
  <tile id="53">
   <properties>
    <property name="metatile" type="int" value="509" />
    <property name="terrain" value="TERRAIN_LAKE" />
    <property name="terrain_id" type="int" value="22" />
   </properties>
  </tile>
  <tile id="54">
   <properties>
    <property name="metatile" type="int" value="510" />
    <property name="terrain" value="TERRAIN_LAKE" />
    <property name="terrain_id" type="int" value="22" />
   </properties>
  </tile>
  <tile id="55">
   <properties>
    <property name="metatile" type="int" value="520" />
    <property name="terrain" value="TERRAIN_PEAK" />
    <property name="terrain_id" type="int" value="18" />
   </properties>
  </tile>
  <tile id="56">
   <properties>
    <property name="metatile" type="int" value="523" />
    <property name="terrain" value="TERRAIN_PEAK" />
    <property name="terrain_id" type="int" value="18" />
   </properties>
  </tile>
  <tile id="57">
   <properties>
    <property name="metatile" type="int" value="524" />
    <property name="terrain" value="TERRAIN_PEAK" />
    <property name="terrain_id" type="int" value="18" />
   </properties>
  </tile>
  <tile id="58">
   <properties>
    <property name="metatile" type="int" value="557" />
    <property name="terrain" value="TERRAIN_PEAK" />
    <property name="terrain_id" type="int" value="18" />
   </properties>
  </tile>
  <tile id="59">
   <properties>
    <property name="metatile" type="int" value="573" />
    <property name="terrain" value="TERRAIN_LAKE" />
    <property name="terrain_id" type="int" value="22" />
   </properties>
  </tile>
  <tile id="60">
   <properties>
    <property name="metatile" type="int" value="591" />
    <property name="terrain" value="TERRAIN_PEAK" />
    <property name="terrain_id" type="int" value="18" />
   </properties>
  </tile>
  <tile id="61">
   <properties>
    <property name="metatile" type="int" value="593" />
    <property name="terrain" value="TERRAIN_PLAINS" />
    <property name="terrain_id" type="int" value="1" />
   </properties>
  </tile>
  <tile id="62">
   <properties>
    <property name="metatile" type="int" value="641" />
    <property name="terrain" value="TERRAIN_CLIFF" />
    <property name="terrain_id" type="int" value="38" />
   </properties>
  </tile>
  <tile id="63">
   <properties>
    <property name="metatile" type="int" value="643" />
    <property name="terrain" value="TERRAIN_CLIFF" />
    <property name="terrain_id" type="int" value="38" />
   </properties>
  </tile>
  <tile id="64">
   <properties>
    <property name="metatile" type="int" value="651" />
    <property name="terrain" value="TERRAIN_PEAK" />
    <property name="terrain_id" type="int" value="18" />
   </properties>
  </tile>
  <tile id="65">
   <properties>
    <property name="metatile" type="int" value="673" />
    <property name="terrain" value="TERRAIN_CLIFF" />
    <property name="terrain_id" type="int" value="38" />
   </properties>
  </tile>
  <tile id="66">
   <properties>
    <property name="metatile" type="int" value="675" />
    <property name="terrain" value="TERRAIN_CLIFF" />
    <property name="terrain_id" type="int" value="38" />
   </properties>
  </tile>
  <tile id="67">
   <properties>
    <property name="metatile" type="int" value="676" />
    <property name="terrain" value="TERRAIN_CLIFF" />
    <property name="terrain_id" type="int" value="38" />
   </properties>
  </tile>
  <tile id="68">
   <properties>
    <property name="metatile" type="int" value="677" />
    <property name="terrain" value="TERRAIN_CLIFF" />
    <property name="terrain_id" type="int" value="38" />
   </properties>
  </tile>
  <tile id="69">
   <properties>
    <property name="metatile" type="int" value="711" />
    <property name="terrain" value="TERRAIN_PEAK" />
    <property name="terrain_id" type="int" value="18" />
   </properties>
  </tile>
  <tile id="70">
   <properties>
    <property name="metatile" type="int" value="718" />
    <property name="terrain" value="TERRAIN_PEAK" />
    <property name="terrain_id" type="int" value="18" />
   </properties>
  </tile>
  <tile id="71">
   <properties>
    <property name="metatile" type="int" value="720" />
    <property name="terrain" value="TERRAIN_FOREST" />
    <property name="terrain_id" type="int" value="12" />
   </properties>
  </tile>
  <tile id="72">
   <properties>
    <property name="metatile" type="int" value="736" />
    <property name="terrain" value="TERRAIN_CLIFF" />
    <property name="terrain_id" type="int" value="38" />
   </properties>
  </tile>
  <tile id="73">
   <properties>
    <property name="metatile" type="int" value="768" />
    <property name="terrain" value="TERRAIN_CLIFF" />
    <property name="terrain_id" type="int" value="38" />
   </properties>
  </tile>
  <tile id="74">
   <properties>
    <property name="metatile" type="int" value="782" />
    <property name="terrain" value="TERRAIN_FOREST" />
    <property name="terrain_id" type="int" value="12" />
   </properties>
  </tile>
  <tile id="75">
   <properties>
    <property name="metatile" type="int" value="783" />
    <property name="terrain" value="TERRAIN_FOREST" />
    <property name="terrain_id" type="int" value="12" />
   </properties>
  </tile>
  <tile id="76">
   <properties>
    <property name="metatile" type="int" value="804" />
    <property name="terrain" value="TERRAIN_HOUSE" />
    <property name="terrain_id" type="int" value="5" />
   </properties>
  </tile>
  <tile id="77">
   <properties>
    <property name="metatile" type="int" value="932" />
    <property name="terrain" value="TERRAIN_FORT" />
    <property name="terrain_id" type="int" value="10" />
   </properties>
  </tile>
  <tile id="78">
   <properties>
    <property name="metatile" type="int" value="942" />
    <property name="terrain" value="TERRAIN_TILE_2C" />
    <property name="terrain_id" type="int" value="44" />
   </properties>
  </tile>
  <tile id="79">
   <properties>
    <property name="metatile" type="int" value="973" />
    <property name="terrain" value="TERRAIN_TILE_2C" />
    <property name="terrain_id" type="int" value="44" />
   </properties>
  </tile>
  <tile id="80">
   <properties>
    <property name="metatile" type="int" value="974" />
    <property name="terrain" value="TERRAIN_TILE_2C" />
    <property name="terrain_id" type="int" value="44" />
   </properties>
  </tile>
  <tile id="81">
   <properties>
    <property name="metatile" type="int" value="975" />
    <property name="terrain" value="TERRAIN_TILE_2C" />
    <property name="terrain_id" type="int" value="44" />
   </properties>
  </tile>
  <tile id="82">
   <properties>
    <property name="metatile" type="int" value="976" />
    <property name="terrain" value="TERRAIN_TILE_2C" />
    <property name="terrain_id" type="int" value="44" />
   </properties>
  </tile>
  <tile id="83">
   <properties>
    <property name="metatile" type="int" value="977" />
    <property name="terrain" value="TERRAIN_TILE_2C" />
    <property name="terrain_id" type="int" value="44" />
   </properties>
  </tile>
  <tile id="84">
   <properties>
    <property name="metatile" type="int" value="1005" />
    <property name="terrain" value="TERRAIN_TILE_2C" />
    <property name="terrain_id" type="int" value="44" />
   </properties>
  </tile>
  <tile id="85">
   <properties>
    <property name="metatile" type="int" value="1006" />
    <property name="terrain" value="TERRAIN_GATE_REGULAR" />
    <property name="terrain_id" type="int" value="35" />
   </properties>
  </tile>
  <tile id="86">
   <properties>
    <property name="metatile" type="int" value="1007" />
    <property name="terrain" value="TERRAIN_TILE_2C" />
    <property name="terrain_id" type="int" value="44" />
   </properties>
  </tile>
 </tileset>
 <layer id="1" name="terrain" width="15" height="10">
  <data encoding="csv">
18,83,79,84,73,18,18,18,4,51,49,50,10,33,4,
18,80,81,82,68,18,18,18,76,2,54,55,60,9,11,
18,85,86,87,18,73,18,78,18,18,4,52,49,55,54,
18,18,37,35,18,74,69,16,17,18,69,4,50,51,3,
64,18,18,38,25,18,26,14,15,67,77,18,5,6,18,
67,72,12,13,18,18,27,7,7,23,18,72,18,18,34,
63,8,1,1,21,75,31,29,7,1,24,18,18,77,44,
66,18,27,20,18,61,65,78,19,20,32,34,40,41,18,
26,22,28,18,61,57,43,59,62,18,34,45,47,36,39,
1,1,30,53,58,48,56,46,71,70,42,47,45,47,45
</data>
 </layer>
</map>