<?xml version='1.0' encoding='UTF-8'?>
<map version="1.10" tiledversion="1.10.2" orientation="orthogonal" renderorder="right-down" width="16" height="10" tilewidth="16" tileheight="16" infinite="0" nextlayerid="2" nextobjectid="1">
 <tileset firstgid="1" name="GradoCastleMap_metatiles" tilewidth="16" tileheight="16" tilecount="87" columns="32">
  <image source="GradoCastleMap.metatiles.png" width="512" height="48" />
  <tile id="0">
   <properties>
    <property name="metatile" type="int" value="6" />
    <property name="terrain" value="TERRAIN_PLAINS" />
    <property name="terrain_id" type="int" value="1" />
   </properties>
  </tile>
  <tile id="1">
   <properties>
    <property name="metatile" type="int" value="38" />
    <property name="terrain" value="TERRAIN_PLAINS" />
    <property name="terrain_id" type="int" value="1" />
   </properties>
  </tile>
  <tile id="2">
   <properties>
    <property name="metatile" type="int" value="70" />
    <property name="terrain" value="TERRAIN_PLAINS" />
    <property name="terrain_id" type="int" value="1" />
   </properties>
  </tile>
  <tile id="3">
   <properties>
    <property name="metatile" type="int" value="71" />
    <property name="terrain" value="TERRAIN_PLAINS" />
    <property name="terrain_id" type="int" value="1" />
   </properties>
  </tile>
  <tile id="4">
   <properties>
    <property name="metatile" type="int" value="79" />
    <property name="terrain" value="TERRAIN_PLAINS" />
    <property name="terrain_id" type="int" value="1" />
   </properties>
  </tile>
  <tile id="5">
   <properties>
    <property name="metatile" type="int" value="81" />
    <property name="terrain" value="TERRAIN_PLAINS" />
    <property name="terrain_id" type="int" value="1" />
   </properties>
  </tile>
  <tile id="6">
   <properties>
    <property name="metatile" type="int" value="82" />
    <property name="terrain" value="TERRAIN_PLAINS" />
    <property name="terrain_id" type="int" value="1" />
   </properties>
  </tile>
  <tile id="7">
   <properties>
    <property name="metatile" type="int" value="98" />
    <property name="terrain" value="TERRAIN_PLAINS" />
    <property name="terrain_id" type="int" value="1" />
   </properties>
  </tile>
  <tile id="8">
   <properties>
    <property name="metatile" type="int" value="99" />
    <property name="terrain" value="TERRAIN_PLAINS" />
    <property name="terrain_id" type="int" value="1" />
   </properties>
  </tile>
  <tile id="9">
   <properties>
    <property name="metatile" type="int" value="102" />
    <property name="terrain" value="TERRAIN_PLAINS" />
    <property name="terrain_id" type="int" value="1" />
   </properties>
  </tile>
  <tile id="10">
   <properties>
    <property name="metatile" type="int" value="103" />
    <property name="terrain" value="TERRAIN_PLAINS" />
    <property name="terrain_id" type="int" value="1" />
   </properties>
  </tile>
  <tile id="11">
   <properties>
    <property name="metatile" type="int" value="130" />
    <property name="terrain" value="TERRAIN_PLAINS" />
    <property name="terrain_id" type="int" value="1" />
   </properties>
  </tile>
  <tile id="12">
   <properties>
    <property name="metatile" type="int" value="131" />
    <property name="terrain" value="TERRAIN_PLAINS" />
    <property name="terrain_id" type="int" value="1" />
   </properties>
  </tile>
  <tile id="13">
   <properties>
    <property name="metatile" type="int" value="138" />
    <property name="terrain" value="TERRAIN_PLAINS" />
    <property name="terrain_id" type="int" value="1" />
   </properties>
  </tile>
  <tile id="14">
   <properties>
    <property name="metatile" type="int" value="162" />
    <property name="terrain" value="TERRAIN_PLAINS" />
    <property name="terrain_id" type="int" value="1" />
   </properties>
  </tile>
  <tile id="15">
   <properties>
    <property name="metatile" type="int" value="163" />
    <property name="terrain" value="TERRAIN_PLAINS" />
    <property name="terrain_id" type="int" value="1" />
   </properties>
  </tile>
  <tile id="16">
   <properties>
    <property name="metatile" type="int" value="196" />
    <property name="terrain" value="TERRAIN_PLAINS" />
    <property name="terrain_id" type="int" value="1" />
   </properties>
  </tile>
  <tile id="17">
   <properties>
    <property name="metatile" type="int" value="197" />
    <property name="terrain" value="TERRAIN_PLAINS" />
    <property name="terrain_id" type="int" value="1" />
   </properties>
  </tile>
  <tile id="18">
   <properties>
    <property name="metatile" type="int" value="198" />
    <property name="terrain" value="TERRAIN_PLAINS" />
    <property name="terrain_id" type="int" value="1" />
   </properties>
  </tile>
  <tile id="19">
   <properties>
    <property name="metatile" type="int" value="199" />
    <property name="terrain" value="TERRAIN_PLAINS" />
    <property name="terrain_id" type="int" value="1" />
   </properties>
  </tile>
  <tile id="20">
   <properties>
    <property name="metatile" type="int" value="228" />
    <property name="terrain" value="TERRAIN_PLAINS" />
    <property name="terrain_id" type="int" value="1" />
   </properties>
  </tile>
  <tile id="21">
   <properties>
    <property name="metatile" type="int" value="229" />
    <property name="terrain" value="TERRAIN_PLAINS" />
    <property name="terrain_id" type="int" value="1" />
   </properties>
  </tile>
  <tile id="22">
   <properties>
    <property name="metatile" type="int" value="231" />
    <property name="terrain" value="TERRAIN_PLAINS" />
    <property name="terrain_id" type="int" value="1" />
   </properties>
  </tile>
  <tile id="23">
   <properties>
    <property name="metatile" type="int" value="270" />
    <property name="terrain" value="TERRAIN_PLAINS" />
    <property name="terrain_id" type="int" value="1" />
   </properties>
  </tile>
  <tile id="24">
   <properties>
    <property name="metatile" type="int" value="271" />
    <property name="terrain" value="TERRAIN_PLAINS" />
    <property name="terrain_id" type="int" value="1" />
   </properties>
  </tile>
  <tile id="25">
   <properties>
    <property name="metatile" type="int" value="273" />
    <property name="terrain" value="TERRAIN_PLAINS" />
    <property name="terrain_id" type="int" value="1" />
   </properties>
  </tile>
  <tile id="26">
   <properties>
    <property name="metatile" type="int" value="293" />
    <property name="terrain" value="TERRAIN_PLAINS" />
    <property name="terrain_id" type="int" value="1" />
   </properties>
  </tile>
  <tile id="27">
   <properties>
    <property name="metatile" type="int" value="300" />
    <property name="terrain" value="TERRAIN_PLAINS" />
    <property name="terrain_id" type="int" value="1" />
   </properties>
  </tile>
  <tile id="28">
   <properties>
    <property name="metatile" type="int" value="301" />
    <property name="terrain" value="TERRAIN_PLAINS" />
    <property name="terrain_id" type="int" value="1" />
   </properties>
  </tile>
  <tile id="29">
   <properties>
    <property name="metatile" type="int" value="336" />
    <property name="terrain" value="TERRAIN_PLAINS" />
    <property name="terrain_id" type="int" value="1" />
   </properties>
  </tile>
  <tile id="30">
   <properties>
    <property name="metatile" type="int" value="401" />
    <property name="terrain" value="TERRAIN_PLAINS" />
    <property name="terrain_id" type="int" value="1" />
   </properties>
  </tile>
  <tile id="31">
   <properties>
    <property name="metatile" type="int" value="433" />
    <property name="terrain" value="TERRAIN_PLAINS" />
    <property name="terrain_id" type="int" value="1" />
   </properties>
  </tile>
  <tile id="32">
   <properties>
    <property name="metatile" type="int" value="435" />
    <property name="terrain" value="TERRAIN_PLAINS" />
    <property name="terrain_id" type="int" value="1" />
   </properties>
  </tile>
  <tile id="33">
   <properties>
    <property name="metatile" type="int" value="468" />
    <property name="terrain" value="TERRAIN_CLIFF" />
    <property name="terrain_id" type="int" value="38" />
   </properties>
  </tile>
  <tile id="34">
   <properties>
    <property name="metatile" type="int" value="506" />
    <property name="terrain" value="TERRAIN_CLIFF" />
    <property name="terrain_id" type="int" value="38" />
   </properties>
  </tile>
  <tile id="35">
   <properties>
    <property name="metatile" type="int" value="640" />
    <property name="terrain" value="TERRAIN_CLIFF" />
    <property name="terrain_id" type="int" value="38" />
   </properties>
  </tile>
  <tile id="36">
   <properties>
    <property name="metatile" type="int" value="641" />
    <property name="terrain" value="TERRAIN_CLIFF" />
    <property name="terrain_id" type="int" value="38" />
   </properties>
  </tile>
  <tile id="37">
   <properties>
    <property name="metatile" type="int" value="643" />
    <property name="terrain" value="TERRAIN_CLIFF" />
    <property name="terrain_id" type="int" value="38" />
   </properties>
  </tile>
  <tile id="38">
   <properties>
    <property name="metatile" type="int" value="673" />
    <property name="terrain" value="TERRAIN_CLIFF" />
    <property name="terrain_id" type="int" value="38" />
   </properties>
  </tile>
  <tile id="39">
   <properties>
    <property name="metatile" type="int" value="674" />
    <property name="terrain" value="TERRAIN_CLIFF" />
    <property name="terrain_id" type="int" value="38" />
   </properties>
  </tile>
  <tile id="40">
   <properties>
    <property name="metatile" type="int" value="675" />
    <property name="terrain" value="TERRAIN_CLIFF" />
    <property name="terrain_id" type="int" value="38" />
   </properties>
  </tile>
  <tile id="41">
   <properties>
    <property name="metatile" type="int" value="676" />
    <property name="terrain" value="TERRAIN_CLIFF" />
    <property name="terrain_id" type="int" value="38" />
   </properties>
  </tile>
  <tile id="42">
   <properties>
    <property name="metatile" type="int" value="677" />
    <property name="terrain" value="TERRAIN_CLIFF" />
    <property name="terrain_id" type="int" value="38" />
   </properties>
  </tile>
  <tile id="43">
   <properties>
    <property name="metatile" type="int" value="705" />
    <property name="terrain" value="TERRAIN_CLIFF" />
    <property name="terrain_id" type="int" value="38" />
   </properties>
  </tile>
  <tile id="44">
   <properties>
    <property name="metatile" type="int" value="720" />
    <property name="terrain" value="TERRAIN_FOREST" />
    <property name="terrain_id" type="int" value="12" />
   </properties>
  </tile>
  <tile id="45">
   <properties>
    <property name="metatile" type="int" value="726" />
    <property name="terrain" value="TERRAIN_ROAD" />
    <property name="terrain_id" type="int" value="2" />
   </properties>
  </tile>
  <tile id="46">
   <properties>
    <property name="metatile" type="int" value="727" />
    <property name="terrain" value="TERRAIN_ROAD" />
    <property name="terrain_id" type="int" value="2" />
   </properties>
  </tile>
  <tile id="47">
   <properties>
    <property name="metatile" type="int" value="734" />
    <property name="terrain" value="TERRAIN_ROAD" />
    <property name="terrain_id" type="int" value="2" />
   </properties>
  </tile>
  <tile id="48">
   <properties>
    <property name="metatile" type="int" value="758" />
    <property name="terrain" value="TERRAIN_ROAD" />
    <property name="terrain_id" type="int" value="2" />
   </properties>
  </tile>
  <tile id="49">
   <properties>
    <property name="metatile" type="int" value="759" />
    <property name="terrain" value="TERRAIN_ROAD" />
    <property name="terrain_id" type="int" value="2" />
   </properties>
  </tile>
  <tile id="50">
   <properties>
    <property name="metatile" type="int" value="760" />
    <property name="terrain" value="TERRAIN_ROAD" />
    <property name="terrain_id" type="int" value="2" />
   </properties>
  </tile>
  <tile id="51">
   <properties>
    <property name="metatile" type="int" value="761" />
    <property name="terrain" value="TERRAIN_ROAD" />
    <property name="terrain_id" type="int" value="2" />
   </properties>
  </tile>
  <tile id="52">
   <properties>
    <property name="metatile" type="int" value="763" />
    <property name="terrain" value="TERRAIN_ROAD" />
    <property name="terrain_id" type="int" value="2" />
   </properties>
  </tile>
  <tile id="53">
   <properties>
    <property name="metatile" type="int" value="768" />
    <property name="terrain" value="TERRAIN_CLIFF" />
    <property name="terrain_id" type="int" value="38" />
   </properties>
  </tile>
  <tile id="54">
   <properties>
    <property name="metatile" type="int" value="769" />
    <property name="terrain" value="TERRAIN_CLIFF" />
    <property name="terrain_id" type="int" value="38" />
   </properties>
  </tile>
  <tile id="55">
   <properties>
    <property name="metatile" type="int" value="771" />
    <property name="terrain" value="TERRAIN_CLIFF" />
    <property name="terrain_id" type="int" value="38" />
   </properties>
  </tile>
  <tile id="56">
   <properties>
    <property name="metatile" type="int" value="782" />
    <property name="terrain" value="TERRAIN_FOREST" />
    <property name="terrain_id" type="int" value="12" />
   </properties>
  </tile>
  <tile id="57">
   <properties>
    <property name="metatile" type="int" value="783" />
    <property name="terrain" value="TERRAIN_FOREST" />
    <property name="terrain_id" type="int" value="12" />
   </properties>
  </tile>
  <tile id="58">
   <properties>
    <property name="metatile" type="int" value="784" />
    <property name="terrain" value="TERRAIN_FOREST" />
    <property name="terrain_id" type="int" value="12" />
   </properties>
  </tile>
  <tile id="59">
   <properties>
    <property name="metatile" type="int" value="785" />
    <property name="terrain" value="TERRAIN_FOREST" />
    <property name="terrain_id" type="int" value="12" />
   </properties>
  </tile>
  <tile id="60">
   <properties>
    <property name="metatile" type="int" value="789" />
    <property name="terrain" value="TERRAIN_ROAD" />
    <property name="terrain_id" type="int" value="2" />
   </properties>
  </tile>
  <tile id="61">
   <properties>
    <property name="metatile" type="int" value="790" />
    <property name="terrain" value="TERRAIN_ROAD" />
    <property name="terrain_id" type="int" value="2" />
   </properties>
  </tile>
  <tile id="62">
   <properties>
    <property name="metatile" type="int" value="792" />
    <property name="terrain" value="TERRAIN_ROAD" />
    <property name="terrain_id" type="int" value="2" />
   </properties>
  </tile>
  <tile id="63">
   <properties>
    <property name="metatile" type="int" value="793" />
    <property name="terrain" value="TERRAIN_ROAD" />
    <property name="terrain_id" type="int" value="2" />
   </properties>
  </tile>
  <tile id="64">
   <properties>
    <property name="metatile" type="int" value="794" />
    <property name="terrain" value="TERRAIN_ROAD" />
    <property name="terrain_id" type="int" value="2" />
   </properties>
  </tile>
  <tile id="65">
   <properties>
    <property name="metatile" type="int" value="805" />
    <property name="terrain" value="TERRAIN_HOUSE" />
    <property name="terrain_id" type="int" value="5" />
   </properties>
  </tile>
  <tile id="66">
   <properties>
    <property name="metatile" type="int" value="815" />
    <property name="terrain" value="TERRAIN_FOREST" />
    <property name="terrain_id" type="int" value="12" />
   </properties>
  </tile>
  <tile id="67">
   <properties>
    <property name="metatile" type="int" value="816" />
    <property name="terrain" value="TERRAIN_FOREST" />
    <property name="terrain_id" type="int" value="12" />
   </properties>
  </tile>
  <tile id="68">
   <properties>
    <property name="metatile" type="int" value="817" />
    <property name="terrain" value="TERRAIN_FOREST" />
    <property name="terrain_id" type="int" value="12" />
   </properties>
  </tile>
  <tile id="69">
   <properties>
    <property name="metatile" type="int" value="836" />
    <property name="terrain" value="TERRAIN_VENDOR" />
    <property name="terrain_id" type="int" value="7" />
   </properties>
  </tile>
  <tile id="70">
   <properties>
    <property name="metatile" type="int" value="848" />
    <property name="terrain" value="TERRAIN_FOREST" />
    <property name="terrain_id" type="int" value="12" />
   </properties>
  </tile>
  <tile id="71">
   <properties>
    <property name="metatile" type="int" value="849" />
    <property name="terrain" value="TERRAIN_FOREST" />
    <property name="terrain_id" type="int" value="12" />
   </properties>
  </tile>
  <tile id="72">
   <properties>
    <property name="metatile" type="int" value="869" />
    <property name="terrain" value="TERRAIN_FORT" />
    <property name="terrain_id" type="int" value="10" />
   </properties>
  </tile>
  <tile id="73">
   <properties>
    <property name="metatile" type="int" value="880" />
    <property name="terrain" value="TERRAIN_FOREST" />
    <property name="terrain_id" type="int" value="12" />
   </properties>
  </tile>
  <tile id="74">
   <properties>
    <property name="metatile" type="int" value="881" />
    <property name="terrain" value="TERRAIN_FOREST" />
    <property name="terrain_id" type="int" value="12" />
   </properties>
  </tile>
  <tile id="75">
   <properties>
    <property name="metatile" type="int" value="882" />
    <property name="terrain" value="TERRAIN_FOREST" />
    <property name="terrain_id" type="int" value="12" />
   </properties>
  </tile>
  <tile id="76">
   <properties>
    <property name="metatile" type="int" value="901" />
    <property name="terrain" value="TERRAIN_ARMORY" />
    <property name="terrain_id" type="int" value="6" />
   </properties>
  </tile>
  <tile id="77">
   <properties>
    <property name="metatile" type="int" value="909" />
    <property name="terrain" value="TERRAIN_TILE_2C" />
    <property name="terrain_id" type="int" value="44" />
   </properties>
  </tile>
  <tile id="78">
   <properties>
    <property name="metatile" type="int" value="910" />
    <property name="terrain" value="TERRAIN_GATE_CASTLE" />
    <property name="terrain_id" type="int" value="11" />
   </properties>
  </tile>
  <tile id="79">
   <properties>
    <property name="metatile" type="int" value="911" />
    <property name="terrain" value="TERRAIN_TILE_2C" />
    <property name="terrain_id" type="int" value="44" />
   </properties>
  </tile>
  <tile id="80">
   <properties>
    <property name="metatile" type="int" value="932" />
    <property name="terrain" value="TERRAIN_FORT" />
    <property name="terrain_id" type="int" value="10" />
   </properties>
  </tile>
  <tile id="81">
   <properties>
    <property name="metatile" type="int" value="938" />
    <property name="terrain" value="TERRAIN_TILE_2C" />
    <property name="terrain_id" type="int" value="44" />
   </properties>
  </tile>
  <tile id="82">
   <properties>
    <property name="metatile" type="int" value="939" />
    <property name="terrain" value="TERRAIN_TILE_2C" />
    <property name="terrain_id" type="int" value="44" />
   </properties>
  </tile>
  <tile id="83">
   <properties>
    <property name="metatile" type="int" value="940" />
    <property name="terrain" value="TERRAIN_TILE_2C" />
    <property name="terrain_id" type="int" value="44" />
   </properties>
  </tile>
  <tile id="84">
   <properties>
    <property name="metatile" type="int" value="970" />
    <property name="terrain" value="TERRAIN_TILE_2C" />
    <property name="terrain_id" type="int" value="44" />
   </properties>
  </tile>
  <tile id="85">
   <properties>
    <property name="metatile" type="int" value="971" />
    <property name="terrain" value="TERRAIN_TILE_2C" />
    <property name="terrain_id" type="int" value="44" />
   </properties>
  </tile>
  <tile id="86">
   <properties>
    <property name="metatile" type="int" value="972" />
    <property name="terrain" value="TERRAIN_TILE_2C" />
    <property name="terrain_id" type="int" value="44" />
   </properties>
  </tile>
 </tileset>
 <layer id="1" name="terrain" width="16" height="10">
  <data encoding="csv">
52,47,66,66,35,18,16,16,59,60,16,38,18,45,58,57,
70,66,30,48,45,42,17,68,69,16,58,45,37,57,67,16,
52,62,69,66,51,36,44,71,72,82,83,84,21,22,16,57,
64,65,66,77,63,40,44,81,16,85,86,87,17,43,40,16,
40,16,59,60,16,69,54,18,16,78,79,80,41,14,55,56,
4,3,5,7,4,16,21,54,69,50,46,51,69,39,22,8,
1,1,1,2,11,15,8,13,45,49,53,63,34,73,20,8,
2,1,1,6,8,9,15,13,12,61,8,19,33,31,23,9,
10,11,10,11,15,16,12,16,12,24,26,27,28,29,8,57,
8,45,81,57,37,13,16,15,19,32,25,8,12,74,75,76
</data>
 </layer>
</map>