<?xml version='1.0' encoding='UTF-8'?>
<map version="1.10" tiledversion="1.10.2" orientation="orthogonal" renderorder="right-down" width="15" height="10" tilewidth="16" tileheight="16" infinite="0" nextlayerid="2" nextobjectid="1">
 <tileset firstgid="1" name="PrologueMap_metatiles" tilewidth="16" tileheight="16" tilecount="95" columns="32">
  <image source="prologue.metatiles.png" width="512" height="48" />
  <tile id="0">
   <properties>
    <property name="metatile" type="int" value="34" />
    <property name="terrain" value="TERRAIN_BRIDGE_REGULAR" />
    <property name="terrain_id" type="int" value="19" />
   </properties>
  </tile>
  <tile id="1">
   <properties>
    <property name="metatile" type="int" value="44" />
    <property name="terrain" value="TERRAIN_PLAINS" />
    <property name="terrain_id" type="int" value="1" />
   </properties>
  </tile>
  <tile id="2">
   <properties>
    <property name="metatile" type="int" value="71" />
    <property name="terrain" value="TERRAIN_PLAINS" />
    <property name="terrain_id" type="int" value="1" />
   </properties>
  </tile>
  <tile id="3">
   <properties>
    <property name="metatile" type="int" value="79" />
    <property name="terrain" value="TERRAIN_PLAINS" />
    <property name="terrain_id" type="int" value="1" />
   </properties>
  </tile>
  <tile id="4">
   <properties>
    <property name="metatile" type="int" value="99" />
    <property name="terrain" value="TERRAIN_PLAINS" />
    <property name="terrain_id" type="int" value="1" />
   </properties>
  </tile>
  <tile id="5">
   <properties>
    <property name="metatile" type="int" value="102" />
    <property name="terrain" value="TERRAIN_PLAINS" />
    <property name="terrain_id" type="int" value="1" />
   </properties>
  </tile>
  <tile id="6">
   <properties>
    <property name="metatile" type="int" value="103" />
    <property name="terrain" value="TERRAIN_PLAINS" />
    <property name="terrain_id" type="int" value="1" />
   </properties>
  </tile>
  <tile id="7">
   <properties>
    <property name="metatile" type="int" value="162" />
    <property name="terrain" value="TERRAIN_PLAINS" />
    <property name="terrain_id" type="int" value="1" />
   </properties>
  </tile>
  <tile id="8">
   <properties>
    <property name="metatile" type="int" value="163" />
    <property name="terrain" value="TERRAIN_PLAINS" />
    <property name="terrain_id" type="int" value="1" />
   </properties>
  </tile>
  <tile id="9">
   <properties>
    <property name="metatile" type="int" value="199" />
    <property name="terrain" value="TERRAIN_PLAINS" />
    <property name="terrain_id" type="int" value="1" />
   </properties>
  </tile>
  <tile id="10">
   <properties>
    <property name="metatile" type="int" value="208" />
    <property name="terrain" value="TERRAIN_PLAINS" />
    <property name="terrain_id" type="int" value="1" />
   </properties>
  </tile>
  <tile id="11">
   <properties>
    <property name="metatile" type="int" value="230" />
    <property name="terrain" value="TERRAIN_PLAINS" />
    <property name="terrain_id" type="int" value="1" />
   </properties>
  </tile>
  <tile id="12">
   <properties>
    <property name="metatile" type="int" value="273" />
    <property name="terrain" value="TERRAIN_PLAINS" />
    <property name="terrain_id" type="int" value="1" />
   </properties>
  </tile>
  <tile id="13">
   <properties>
    <property name="metatile" type="int" value="384" />
    <property name="terrain" value="TERRAIN_PEAK" />
    <property name="terrain_id" type="int" value="18" />
   </properties>
  </tile>
  <tile id="14">
   <properties>
    <property name="metatile" type="int" value="385" />
    <property name="terrain" value="TERRAIN_PEAK" />
    <property name="terrain_id" type="int" value="18" />
   </properties>
  </tile>
  <tile id="15">
   <properties>
    <property name="metatile" type="int" value="386" />
    <property name="terrain" value="TERRAIN_PEAK" />
    <property name="terrain_id" type="int" value="18" />
   </properties>
  </tile>
  <tile id="16">
   <properties>
    <property name="metatile" type="int" value="388" />
    <property name="terrain" value="TERRAIN_PLAINS" />
    <property name="terrain_id" type="int" value="1" />
   </properties>
  </tile>
  <tile id="17">
   <properties>
    <property name="metatile" type="int" value="417" />
    <property name="terrain" value="TERRAIN_PEAK" />
    <property name="terrain_id" type="int" value="18" />
   </properties>
  </tile>
  <tile id="18">
   <properties>
    <property name="metatile" type="int" value="419" />
    <property name="terrain" value="TERRAIN_PEAK" />
    <property name="terrain_id" type="int" value="18" />
   </properties>
  </tile>
  <tile id="19">
   <properties>
    <property name="metatile" type="int" value="424" />
    <property name="terrain" value="TERRAIN_PEAK" />
    <property name="terrain_id" type="int" value="18" />
   </properties>
  </tile>
  <tile id="20">
   <properties>
    <property name="metatile" type="int" value="426" />
    <property name="terrain" value="TERRAIN_PEAK" />
    <property name="terrain_id" type="int" value="18" />
   </properties>
  </tile>
  <tile id="21">
   <properties>
    <property name="metatile" type="int" value="429" />
    <property name="terrain" value="TERRAIN_PEAK" />
    <property name="terrain_id" type="int" value="18" />
   </properties>
  </tile>
  <tile id="22">
   <properties>
    <property name="metatile" type="int" value="434" />
    <property name="terrain" value="TERRAIN_PLAINS" />
    <property name="terrain_id" type="int" value="1" />
   </properties>
  </tile>
  <tile id="23">
   <properties>
    <property name="metatile" type="int" value="451" />
    <property name="terrain" value="TERRAIN_PEAK" />
    <property name="terrain_id" type="int" value="18" />
   </properties>
  </tile>
  <tile id="24">
   <properties>
    <property name="metatile" type="int" value="456" />
    <property name="terrain" value="TERRAIN_PEAK" />
    <property name="terrain_id" type="int" value="18" />
   </properties>
  </tile>
  <tile id="25">
   <properties>
    <property name="metatile" type="int" value="459" />
    <property name="terrain" value="TERRAIN_PEAK" />
    <property name="terrain_id" type="int" value="18" />
   </properties>
  </tile>
  <tile id="26">
   <properties>
    <property name="metatile" type="int" value="460" />
    <property name="terrain" value="TERRAIN_PEAK" />
    <property name="terrain_id" type="int" value="18" />
   </properties>
  </tile>
  <tile id="27">
   <properties>
    <property name="metatile" type="int" value="461" />
    <property name="terrain" value="TERRAIN_PEAK" />
    <property name="terrain_id" type="int" value="18" />
   </properties>
  </tile>
  <tile id="28">
   <properties>
    <property name="metatile" type="int" value="464" />
    <property name="terrain" value="TERRAIN_PEAK" />
    <property name="terrain_id" type="int" value="18" />
   </properties>
  </tile>
  <tile id="29">
   <properties>
    <property name="metatile" type="int" value="485" />
    <property name="terrain" value="TERRAIN_PEAK" />
    <property name="terrain_id" type="int" value="18" />
   </properties>
  </tile>
  <tile id="30">
   <properties>
    <property name="metatile" type="int" value="491" />
    <property name="terrain" value="TERRAIN_PEAK" />
    <property name="terrain_id" type="int" value="18" />
   </properties>
  </tile>
  <tile id="31">
   <properties>
    <property name="metatile" type="int" value="492" />
    <property name="terrain" value="TERRAIN_PEAK" />
    <property name="terrain_id" type="int" value="18" />
   </properties>
  </tile>
  <tile id="32">
   <properties>
    <property name="metatile" type="int" value="494" />
    <property name="terrain" value="TERRAIN_PEAK" />
    <property name="terrain_id" type="int" value="18" />
   </properties>
  </tile>
  <tile id="33">
   <properties>
    <property name="metatile" type="int" value="496" />
    <property name="terrain" value="TERRAIN_PEAK" />
    <property name="terrain_id" type="int" value="18" />
   </properties>
  </tile>
  <tile id="34">
   <properties>
    <property name="metatile" type="int" value="512" />
    <property name="terrain" value="TERRAIN_PEAK" />
    <property name="terrain_id" type="int" value="18" />
   </properties>
  </tile>
  <tile id="35">
   <properties>
    <property name="metatile" type="int" value="514" />
    <property name="terrain" value="TERRAIN_PEAK" />
    <property name="terrain_id" type="int" value="18" />
   </properties>
  </tile>
  <tile id="36">
   <properties>
    <property name="metatile" type="int" value="517" />
    <property name="terrain" value="TERRAIN_PEAK" />
    <property name="terrain_id" type="int" value="18" />
   </properties>
  </tile>
  <tile id="37">
   <properties>
    <property name="metatile" type="int" value="523" />
    <property name="terrain" value="TERRAIN_PEAK" />
    <property name="terrain_id" type="int" value="18" />
   </properties>
  </tile>
  <tile id="38">
   <properties>
    <property name="metatile" type="int" value="525" />
    <property name="terrain" value="TERRAIN_PEAK" />
    <property name="terrain_id" type="int" value="18" />
   </properties>
  </tile>
  <tile id="39">
   <properties>
    <property name="metatile" type="int" value="529" />
    <property name="terrain" value="TERRAIN_PEAK" />
    <property name="terrain_id" type="int" value="18" />
   </properties>
  </tile>
  <tile id="40">
   <properties>
    <property name="metatile" type="int" value="539" />
    <property name="terrain" value="TERRAIN_RIVER" />
    <property name="terrain_id" type="int" value="16" />
   </properties>
  </tile>
  <tile id="41">
   <properties>
    <property name="metatile" type="int" value="545" />
    <property name="terrain" value="TERRAIN_PEAK" />
    <property name="terrain_id" type="int" value="18" />
   </properties>
  </tile>
  <tile id="42">
   <properties>
    <property name="metatile" type="int" value="550" />
    <property name="terrain" value="TERRAIN_PEAK" />
    <property name="terrain_id" type="int" value="18" />
   </properties>
  </tile>
  <tile id="43">
   <properties>
    <property name="metatile" type="int" value="551" />
    <property name="terrain" value="TERRAIN_PEAK" />
    <property name="terrain_id" type="int" value="18" />
   </properties>
  </tile>
  <tile id="44">
   <properties>
    <property name="metatile" type="int" value="553" />
    <property name="terrain" value="TERRAIN_PEAK" />
    <property name="terrain_id" type="int" value="18" />
   </properties>
  </tile>
  <tile id="45">
   <properties>
    <property name="metatile" type="int" value="555" />
    <property name="terrain" value="TERRAIN_PEAK" />
    <property name="terrain_id" type="int" value="18" />
   </properties>
  </tile>
  <tile id="46">
   <properties>
    <property name="metatile" type="int" value="559" />
    <property name="terrain" value="TERRAIN_PEAK" />
    <property name="terrain_id" type="int" value="18" />
   </properties>
  </tile>
  <tile id="47">
   <properties>
    <property name="metatile" type="int" value="560" />
    <property name="terrain" value="TERRAIN_PEAK" />
    <property name="terrain_id" type="int" value="18" />
   </properties>
  </tile>
  <tile id="48">
   <properties>
    <property name="metatile" type="int" value="562" />
    <property name="terrain" value="TERRAIN_PEAK" />
    <property name="terrain_id" type="int" value="18" />
   </properties>
  </tile>
  <tile id="49">
   <properties>
    <property name="metatile" type="int" value="570" />
    <property name="terrain" value="TERRAIN_RIVER" />
    <property name="terrain_id" type="int" value="16" />
   </properties>
  </tile>
  <tile id="50">
   <properties>
    <property name="metatile" type="int" value="576" />
    <property name="terrain" value="TERRAIN_PEAK" />
    <property name="terrain_id" type="int" value="18" />
   </properties>
  </tile>
  <tile id="51">
   <properties>
    <property name="metatile" type="int" value="580" />
    <property name="terrain" value="TERRAIN_PEAK" />
    <property name="terrain_id" type="int" value="18" />
   </properties>
  </tile>
  <tile id="52">
   <properties>
    <property name="metatile" type="int" value="581" />
    <property name="terrain" value="TERRAIN_PEAK" />
    <property name="terrain_id" type="int" value="18" />
   </properties>
  </tile>
  <tile id="53">
   <properties>
    <property name="metatile" type="int" value="582" />
    <property name="terrain" value="TERRAIN_PEAK" />
    <property name="terrain_id" type="int" value="18" />
   </properties>
  </tile>
  <tile id="54">
   <properties>
    <property name="metatile" type="int" value="583" />
    <property name="terrain" value="TERRAIN_PEAK" />
    <property name="terrain_id" type="int" value="18" />
   </properties>
  </tile>
  <tile id="55">
   <properties>
    <property name="metatile" type="int" value="585" />
    <property name="terrain" value="TERRAIN_PEAK" />
    <property name="terrain_id" type="int" value="18" />
   </properties>
  </tile>
  <tile id="56">
   <properties>
    <property name="metatile" type="int" value="587" />
    <property name="terrain" value="TERRAIN_PEAK" />
    <property name="terrain_id" type="int" value="18" />
   </properties>
  </tile>
  <tile id="57">
   <properties>
    <property name="metatile" type="int" value="588" />
    <property name="terrain" value="TERRAIN_PEAK" />
    <property name="terrain_id" type="int" value="18" />
   </properties>
  </tile>
  <tile id="58">
   <properties>
    <property name="metatile" type="int" value="591" />
    <property name="terrain" value="TERRAIN_PEAK" />
    <property name="terrain_id" type="int" value="18" />
   </properties>
  </tile>
  <tile id="59">
   <properties>
    <property name="metatile" type="int" value="592" />
    <property name="terrain" value="TERRAIN_PEAK" />
    <property name="terrain_id" type="int" value="18" />
   </properties>
  </tile>
  <tile id="60">
   <properties>
    <property name="metatile" type="int" value="593" />
    <property name="terrain" value="TERRAIN_PLAINS" />
    <property name="terrain_id" type="int" value="1" />
   </properties>
  </tile>
  <tile id="61">
   <properties>
    <property name="metatile" type="int" value="596" />
    <property name="terrain" value="TERRAIN_RIVER" />
    <property name="terrain_id" type="int" value="16" />
   </properties>
  </tile>
  <tile id="62">
   <properties>
    <property name="metatile" type="int" value="598" />
    <property name="terrain" value="TERRAIN_RIVER" />
    <property name="terrain_id" type="int" value="16" />
   </properties>
  </tile>
  <tile id="63">
   <properties>
    <property name="metatile" type="int" value="603" />
    <property name="terrain" value="TERRAIN_RIVER" />
    <property name="terrain_id" type="int" value="16" />
   </properties>
  </tile>
  <tile id="64">
   <properties>
    <property name="metatile" type="int" value="613" />
    <property name="terrain" value="TERRAIN_PEAK" />
    <property name="terrain_id" type="int" value="18" />
   </properties>
  </tile>
  <tile id="65">
   <properties>
    <property name="metatile" type="int" value="614" />
    <property name="terrain" value="TERRAIN_PEAK" />
    <property name="terrain_id" type="int" value="18" />
   </properties>
  </tile>
  <tile id="66">
   <properties>
    <property name="metatile" type="int" value="615" />
    <property name="terrain" value="TERRAIN_PEAK" />
    <property name="terrain_id" type="int" value="18" />
   </properties>
  </tile>
  <tile id="67">
   <properties>
    <property name="metatile" type="int" value="616" />
    <property name="terrain" value="TERRAIN_PEAK" />
    <property name="terrain_id" type="int" value="18" />
   </properties>
  </tile>
  <tile id="68">
   <properties>
    <property name="metatile" type="int" value="618" />
    <property name="terrain" value="TERRAIN_PEAK" />
    <property name="terrain_id" type="int" value="18" />
   </properties>
  </tile>
  <tile id="69">
   <properties>
    <property name="metatile" type="int" value="620" />
    <property name="terrain" value="TERRAIN_PEAK" />
    <property name="terrain_id" type="int" value="18" />
   </properties>
  </tile>
  <tile id="70">
   <properties>
    <property name="metatile" type="int" value="626" />
    <property name="terrain" value="TERRAIN_PEAK" />
    <property name="terrain_id" type="int" value="18" />
   </properties>
  </tile>
  <tile id="71">
   <properties>
    <property name="metatile" type="int" value="629" />
    <property name="terrain" value="TERRAIN_RIVER" />
    <property name="terrain_id" type="int" value="16" />
   </properties>
  </tile>
  <tile id="72">
   <properties>
    <property name="metatile" type="int" value="631" />
    <property name="terrain" value="TERRAIN_RIVER" />
    <property name="terrain_id" type="int" value="16" />
   </properties>
  </tile>
  <tile id="73">
   <properties>
    <property name="metatile" type="int" value="634" />
    <property name="terrain" value="TERRAIN_RIVER" />
    <property name="terrain_id" type="int" value="16" />
   </properties>
  </tile>
  <tile id="74">
   <properties>
    <property name="metatile" type="int" value="635" />
    <property name="terrain" value="TERRAIN_RIVER" />
    <property name="terrain_id" type="int" value="16" />
   </properties>
  </tile>
  <tile id="75">
   <properties>
    <property name="metatile" type="int" value="649" />
    <property name="terrain" value="TERRAIN_PEAK" />
    <property name="terrain_id" type="int" value="18" />
   </properties>
  </tile>
  <tile id="76">
   <properties>
    <property name="metatile" type="int" value="657" />
    <property name="terrain" value="TERRAIN_PEAK" />
    <property name="terrain_id" type="int" value="18" />
   </properties>
  </tile>
  <tile id="77">
   <properties>
    <property name="metatile" type="int" value="679" />
    <property name="terrain" value="TERRAIN_PEAK" />
    <property name="terrain_id" type="int" value="18" />
   </properties>
  </tile>
  <tile id="78">
   <properties>
    <property name="metatile" type="int" value="689" />
    <property name="terrain" value="TERRAIN_PEAK" />
    <property name="terrain_id" type="int" value="18" />
   </properties>
  </tile>
  <tile id="79">
   <properties>
    <property name="metatile" type="int" value="690" />
    <property name="terrain" value="TERRAIN_PEAK" />
    <property name="terrain_id" type="int" value="18" />
   </properties>
  </tile>
  <tile id="80">
   <properties>
    <property name="metatile" type="int" value="711" />
    <property name="terrain" value="TERRAIN_PEAK" />
    <property name="terrain_id" type="int" value="18" />
   </properties>
  </tile>
  <tile id="81">
   <properties>
    <property name="metatile" type="int" value="718" />
    <property name="terrain" value="TERRAIN_PEAK" />
    <property name="terrain_id" type="int" value="18" />
   </properties>
  </tile>
  <tile id="82">
   <properties>
    <property name="metatile" type="int" value="720" />
    <property name="terrain" value="TERRAIN_FOREST" />
    <property name="terrain_id" type="int" value="12" />
   </properties>
  </tile>
  <tile id="83">
   <properties>
    <property name="metatile" type="int" value="742" />
    <property name="terrain" value="TERRAIN_PLAINS" />
    <property name="terrain_id" type="int" value="1" />
   </properties>
  </tile>
  <tile id="84">
   <properties>
    <property name="metatile" type="int" value="743" />
    <property name="terrain" value="TERRAIN_PLAINS" />
    <property name="terrain_id" type="int" value="1" />
   </properties>
  </tile>
  <tile id="85">
   <properties>
    <property name="metatile" type="int" value="745" />
    <property name="terrain" value="TERRAIN_PLAINS" />
    <property name="terrain_id" type="int" value="1" />
   </properties>
  </tile>
  <tile id="86">
   <properties>
    <property name="metatile" type="int" value="747" />
    <property name="terrain" value="TERRAIN_PEAK" />
    <property name="terrain_id" type="int" value="18" />
   </properties>
  </tile>
  <tile id="87">
   <properties>
    <property name="metatile" type="int" value="748" />
    <property name="terrain" value="TERRAIN_PEAK" />
    <property name="terrain_id" type="int" value="18" />
   </properties>
  </tile>
  <tile id="88">
   <properties>
    <property name="metatile" type="int" value="750" />
    <property name="terrain" value="TERRAIN_PEAK" />
    <property name="terrain_id" type="int" value="18" />
   </properties>
  </tile>
  <tile id="89">
   <properties>
    <property name="metatile" type="int" value="752" />
    <property name="terrain" value="TERRAIN_PEAK" />
    <property name="terrain_id" type="int" value="18" />
   </properties>
  </tile>
  <tile id="90">
   <properties>
    <property name="metatile" type="int" value="774" />
    <property name="terrain" value="TERRAIN_PLAINS" />
    <property name="terrain_id" type="int" value="1" />
   </properties>
  </tile>
  <tile id="91">
   <properties>
    <property name="metatile" type="int" value="777" />
    <property name="terrain" value="TERRAIN_PLAINS" />
    <property name="terrain_id" type="int" value="1" />
   </properties>
  </tile>
  <tile id="92">
   <properties>
    <property name="metatile" type="int" value="782" />
    <property name="terrain" value="TERRAIN_FOREST" />
    <property name="terrain_id" type="int" value="12" />
   </properties>
  </tile>
  <tile id="93">
   <properties>
    <property name="metatile" type="int" value="815" />
    <property name="terrain" value="TERRAIN_FOREST" />
    <property name="terrain_id" type="int" value="12" />
   </properties>
  </tile>
  <tile id="94">
   <properties>
    <property name="metatile" type="int" value="817" />
    <property name="terrain" value="TERRAIN_FOREST" />
    <property name="terrain_id" type="int" value="12" />
   </properties>
  </tile>
 </tileset>
 <layer id="1" name="terrain" width="15" height="10">
  <data encoding="csv">
5,5,93,88,61,62,75,72,90,30,70,77,59,21,53,
73,1,64,41,50,63,81,59,16,55,57,35,66,20,32,
74,1,63,5,71,89,59,38,49,22,55,57,19,69,56,
84,91,2,4,3,78,79,39,20,22,45,18,69,22,43,
26,82,84,6,7,71,89,79,87,33,56,31,22,32,48,
68,67,21,40,5,5,85,91,9,5,47,57,42,29,61,
44,19,69,34,78,14,37,80,92,83,78,79,87,60,71,
66,25,22,65,15,43,38,68,40,91,95,8,9,94,17,
54,38,52,46,51,44,46,42,22,76,86,11,13,10,83,
22,55,39,57,58,36,24,20,28,27,40,5,12,23,10
</data>
 </layer>
</map>